public/avatar/item0/53.svg

<svg xmlns:xlink="http://www.w3.org/1999/xlink" height="58.65" width="49.15" xmlns="http://www.w3.org/2000/svg"><use height="16.75" transform="translate(9.5 21.2)" width="28.8" xlink:href="#a"/><defs><g id="a"><path d="M10.15 12.45q.45-2.9-.8-4.3Q8.3 7 5.7 7.1l-6.45.4.25-2.85Q10.6 6.5 11.75 7.1q1.6.75.4 6.8-.5 3.45-3 4.75-1.65.95-9.25-.8V15.6l8.45.4q1.3-.8 1.8-3.55" fill-rule="evenodd" transform="translate(14.6 -3.1)"/><path d="m.6 7.5-6.45-.4Q-8.45 7-9.5 8.15q-1.25 1.4-.75 4.3Q-9.8 15.2-8.5 16q1.65 1 8.4-.4v2.25q-7.55 1.75-9.25.8-2.3-1.25-3-4.75-.9-6.15.45-6.8L.35 4.65.6 7.5" fill-rule="evenodd" transform="translate(14.6 -3.1)"/><path d="M-.25 12.45q1.2 0 3.5 4l-6.85-.6 1.25-1.7q1.4-1.7 2.1-1.7" fill-rule="evenodd" transform="translate(14.6 -3.1)"/><path d="M27.25 4.85Q25.2 1 14.45 1h-.1Q3.65 1 1.5 4.85q-.95 1.85-.1 6.1.95 4.55 3.2 4.8l4.35-.4 5.45-.75q2.25 0 5.45.75l4.35.4q2.25-.25 3.2-4.8.85-4.25-.15-6.1Z" fill="none" stroke="#57002e" stroke-linecap="round" stroke-linejoin="round" stroke-width="2"/><path d="m1.5 14.1 3.75 1.55 2.7 1-3.05.45-3.55-1.9.15-1.1m-3.6 0 .2 1.1-3.6 1.9-3.05-.45 2.7-1 3.75-1.55" fill-rule="evenodd" transform="translate(14.6 -3.1)"/><path d="m9.6 18.85-4.35-.4q-3.2-.75-5.45-.75l-5.45.75-4.35.4q-2.25-.25-3.2-4.8-.85-4.25.1-6.1Q-10.95 4.1-.25 4.1h.1q10.75 0 12.8 3.85 1 1.85.15 6.1-.95 4.55-3.2 4.8M8.2 6.7q-3.6-1-7.8-1H-.8q-4.25 0-7.85 1-3.35.95-3.8 2-.4 1.05.75 4.95 1.1 3.85 1.9 4.15.45.15 4.15-1.55 3.9-1.8 5.2-1.7 1.55.1.45 0 1.65-.1 5.4 1.75 3.5 1.75 3.95 1.5.85-.4 1.95-4.25 1.1-3.8.7-4.85-.4-1.05-3.8-2" fill="#ff00a6" fill-rule="evenodd" transform="translate(14.6 -3.1)"/><path d="M-1.75 14.65q.7-.1 1.7.75.95.8 1.1 1.55.2.7-1.2.75l-2.1-.05-3.85.75q-2.8.95-4.15.35-.65-.3 1.1-1.1l2.55-1.05q4-1.8 5.35-1.85l-.5-.1" fill="#b80077" fill-rule="evenodd" transform="translate(14.6 -3.1)"/><path d="m.9 5.15 2.6.1 5.1.85q4.2 1.25 4 3.9l-.5 3.1M-.25 14.85l3.1.75q2.05.65 3.75 1.9" fill="none" stroke="#fefffa" stroke-linecap="round" stroke-linejoin="round" transform="translate(14.6 -3.1)"/><path d="M-13.35 11.75Q-13.8 8.4-11.85 8l-.5.5-.25.65q.1 2.25.75 4.35 1 3 1.6 3.85l.9.55.6.7-2-.2q-1.85-.7-2.6-6.65" fill="#b80077" fill-rule="evenodd" transform="translate(14.6 -3.1)"/></g></defs></svg>

<?xml version="1.0" encoding="UTF-8" standalone="no"?>
<svg xmlns:xlink="http://www.w3.org/1999/xlink" height="58.65px" width="49.15px" xmlns="http://www.w3.org/2000/svg">
  <g transform="matrix(1.0, 0.0, 0.0, 1.0, 24.1, 18.1)">
    <use height="16.75" transform="matrix(1.0, 0.0, 0.0, 1.0, -14.6, 3.1)" width="28.8" xlink:href="#shape0"/>
  </g>
  <defs>
    <g id="shape0" transform="matrix(1.0, 0.0, 0.0, 1.0, 14.6, -3.1)">
      <path d="M10.15 12.45 Q10.6 9.55 9.35 8.15 8.3 7.0 5.7 7.1 L-0.75 7.5 -0.5 4.65 Q10.6 6.5 11.75 7.1 13.35 7.85 12.15 13.9 11.65 17.35 9.15 18.65 7.5 19.6 -0.1 17.85 L-0.1 15.6 8.35 16.0 Q9.65 15.2 10.15 12.45" fill="#000000" fill-rule="evenodd" stroke="none"/>
      <path d="M0.6 7.5 L-5.85 7.1 Q-8.45 7.0 -9.5 8.15 -10.75 9.55 -10.25 12.45 -9.8 15.2 -8.5 16.0 -6.85 17.0 -0.1 15.6 L-0.1 17.85 Q-7.65 19.6 -9.35 18.65 -11.65 17.4 -12.35 13.9 -13.25 7.75 -11.9 7.1 L0.35 4.65 0.6 7.5" fill="#000000" fill-rule="evenodd" stroke="none"/>
      <path d="M-0.25 12.45 Q0.95 12.45 3.25 16.45 L-3.6 15.85 -2.35 14.15 Q-0.95 12.45 -0.25 12.45" fill="#000000" fill-rule="evenodd" stroke="none"/>
      <path d="M12.65 7.95 Q10.6 4.1 -0.15 4.1 L-0.25 4.1 Q-10.95 4.1 -13.1 7.95 -14.05 9.8 -13.2 14.05 -12.25 18.6 -10.0 18.85 L-5.65 18.45 -0.2 17.7 Q2.05 17.7 5.25 18.45 L9.6 18.85 Q11.85 18.6 12.8 14.05 13.65 9.8 12.65 7.95 Z" fill="none" stroke="#57002e" stroke-linecap="round" stroke-linejoin="round" stroke-width="2.0"/>
      <path d="M1.5 14.1 L5.25 15.65 7.95 16.65 4.9 17.1 1.35 15.2 1.5 14.1" fill="#000000" fill-rule="evenodd" stroke="none"/>
      <path d="M-2.1 14.1 L-1.9 15.2 -5.5 17.1 -8.55 16.65 -5.85 15.65 -2.1 14.1" fill="#000000" fill-rule="evenodd" stroke="none"/>
      <path d="M9.6 18.85 L5.25 18.45 Q2.05 17.7 -0.2 17.7 L-5.65 18.45 -10.0 18.85 Q-12.25 18.6 -13.2 14.05 -14.05 9.8 -13.1 7.95 -10.95 4.1 -0.25 4.1 L-0.15 4.1 Q10.6 4.1 12.65 7.95 13.65 9.8 12.8 14.05 11.85 18.6 9.6 18.85 M8.2 6.7 Q4.6 5.7 0.4 5.7 L-0.8 5.7 Q-5.05 5.7 -8.65 6.7 -12.0 7.65 -12.45 8.7 -12.85 9.75 -11.7 13.65 -10.6 17.5 -9.8 17.8 -9.35 17.95 -5.65 16.25 -1.75 14.45 -0.45 14.55 1.1 14.65 0.0 14.55 1.65 14.45 5.4 16.3 8.9 18.05 9.35 17.8 10.2 17.4 11.3 13.55 12.4 9.75 12.0 8.7 11.6 7.65 8.2 6.7" fill="#ff00a6" fill-rule="evenodd" stroke="none"/>
      <path d="M-1.75 14.65 Q-1.05 14.55 -0.05 15.4 0.9 16.2 1.05 16.95 1.25 17.65 -0.15 17.7 L-2.25 17.65 -6.1 18.4 Q-8.9 19.35 -10.25 18.75 -10.9 18.45 -9.15 17.65 L-6.6 16.6 Q-2.6 14.8 -1.25 14.75 L-1.75 14.65" fill="#b80077" fill-rule="evenodd" stroke="none"/>
      <path d="M0.9 5.15 L3.5 5.25 8.6 6.1 Q12.8 7.35 12.6 10.0 L12.1 13.1" fill="none" stroke="#fefffa" stroke-linecap="round" stroke-linejoin="round" stroke-width="1.0"/>
      <path d="M-0.25 14.85 L2.85 15.6 Q4.9 16.25 6.6 17.5" fill="none" stroke="#fefffa" stroke-linecap="round" stroke-linejoin="round" stroke-width="1.0"/>
      <path d="M-13.35 11.75 Q-13.8 8.4 -11.85 8.0 L-12.35 8.5 -12.6 9.15 Q-12.5 11.4 -11.85 13.5 -10.85 16.5 -10.25 17.35 L-9.35 17.9 -8.75 18.6 -10.75 18.4 Q-12.6 17.7 -13.35 11.75" fill="#b80077" fill-rule="evenodd" stroke="none"/>
    </g>
  </defs>
</svg>
